X:1
T:Kataware Doki
T:Kataware Doki
T:Kimi No Nawa OST
T:RADWIMPS
T:Arranged byBlackSakura 
T:Copyright © BehindMusic
T:Copyright © BehindMusic
T:Copyright © BehindMusic
T:Copyright © BehindMusic
C:RADWIMPS
Z:BlackSakura
Z:Copyright © BehindMusic
%%score { 1 | 2 } 3
L:1/8
Q:1/4=55
M:4/4
K:C
V:1 treble nm="Piano" snm="Pno."
V:2 bass 
V:3 treble nm="ไวโอลิน" snm="Vln."
V:1
 g4 d4 | e8 | g4 f4- | f4 c4- | c8 ||[Q:1/4=110] g4 g3 g | g2 e2 d2 dc | e8 | z4 z2 c2 | g4 g3 c | %10
 c'2 ba g2 ga | g4 e>f- fe | d6 c2 | g4 g3 g | g2 e2 d2 dc | e8 | z2 G2 cded- | d c4- ccc- | %18
 c3 F cded- | d c2 c4 d- | d2 G2 cded- | dccA c2 cc- | c3 F cded- | d c2 c g2 cd- | d2 G3 cdc || %25
[M:3/4] c6 |[M:4/4] g8 | [GBce]8- | [GBce]8 |[M:3/4] [Gc]6 |[M:4/4] [Ad]8 | [GBce]8- | [GBce]8 | %33
 g4 g3 g | g2 e2 d2 dc | e8 | z4 c4 | g4 g3 c | c'2 ba g2 ga | g4 e>f- fe | d6 c2 | g4 g3 g | %42
 g2 e2 d2 dc | e8 | z2[Q:1/4=115] G2 cded- | dccA c2 cc- | c3 F cded- | d c2 c g2 cd- | %48
[Q:1/4=120] [G,DGd]2 z2 [dgc']4 |[K:bass] A,,4 z E A2 | F,,F,F,C F4 | C,CCG c4 | G,, G,3 D G3 | %53
 A,, A,2 A,2- A, G2 | F,,F,F,C F4 | C,CCG cECD- | D6 z2 | z8 | z8 | z8 | z8 | z2 z2 z4 || %62
[K:treble] g4 g3 g | g2 e2 d2 dc | e8- | e6 z2 | z8 | z8 | z8 | z2 z2 z4 | z8 | z8 | z2 z2 z4 | %73
 [A,CEG]8 | [G,DGd]2 G2 cded- | dccA z EA-[Ac-] | c3 F cded- | dCCG c4 | d2 G2 cded- | %79
 dccA c2 cc- | c3 F cded- | d c2 c g2 cd- | d2 [G,G]2 z2 z2 |[Q:1/4=122] [cc']bga dega | %84
 dega dega | [cc']bga dega | dega dega ||[Q:1/4=125] [CEGc]3 [Gceg]3 [DAce]2- | [DAce]4 [Ac]2 z2 | %89
 [cc']3 [Gg]3 [dgbd']2- | [dgbd']4 [GBd]2 z2 | [eac'e']3 [dd']3 [gg'][eae']- | [eae']4 [FAc]2 z2 | %93
 [cgc']3 [Gg]3 [cgc']2- | [cgc']2 CG cgc'g' | c''8- | c''8 |] %97
V:2
!f! G,4 D,4 | E,8 | G,4 F,4- | F,4 C4- | C8 ||!mf! A8 | F8 | C8 | G8 | A8 | F8 | C8 | G8 | A8 | %14
 F8 |!f! C8 | G,8 | A,8 | F,8 | C,8 | F,8 | A,8 | F,8 | C,8 | G,8 ||[M:3/4][K:treble] [A,CEG]6 | %26
[M:4/4] [_B,DFA]8 | C8- | C8 |[M:3/4] [A,CF]6 |[M:4/4] [_B,DF]8 | C8- | C8 | [A,CEG]8 | %34
 [F,CA]4 [gc'e']4 | [CEG]8 | [G,DG]4 [dgc']4 | [CEG]8 | [F,CA]4 [ceg]4 | [CEG]8 | [G,DG]4 [dgc']4 | %41
 [A,CEG]8 | [F,CA]4 [gc'e']4 | [CEG]8 | [G,DG]4 [dgc']4 | [CEG]8 | [F,CA]4 [ceg]4 | [CEG]8 | %48
[K:bass] z2 G,,2 C,D,E,D,- | D,C,C,A,, C,2 C,C,- | C,3 F,, C,D,E,D,- | D, C,2 C, G,2 C,D, | %52
[K:treble] [G,DG]4 [dgc']4 | [F,CA]4 [ceg]4 | [CEG]8 | [F,CA]4 [gc'e']4 | [CEG]6 cB | %57
 c2!f! [A,CEG]4- [A,CEG]2 | [_B,DFA]6- [B,DFA]2 |!ff! C8- | C8- | C8 ||[K:bass]!p! z8 | z8 | z8 | %65
 z2 z2 z2 C,2 | G,4 G,3 C, | C2 B,A, G,2 G,A, | G,8- | G,6 z2 | z4 z4 | z8 | z8 |!mp! z8 | %74
!mf! [G,,D,G,D]2 G,,2 C,D,E,D,- | D,C,C,A,, C,2 C,C,- | C,3 F,, C,D,E,D,- | D, C,2 C, G,2 C,D,- | %78
 D,2 G,,2 C,D,E,D,- | D,C,C,A,, C,2 C,C,- | C,3 F,, C,D,E,D,- | D, C,2 C, G,2 C,D, | %82
 G,,G,,!f!G,,D, G,B,DG, |[K:treble] A,DAc Ae a2 | FAce cA F2 | CGce gecG | G,D G2 dBGD || %87
[K:bass] [A,,A,]3 [A,CEA]3 [F,,F,]2- | [F,,F,]F,CF z FCF, | C,G,C z GE G,2- | G,G,DG z GDG, | %91
 A,,E,A,C EA, z [F,,F,]- | [F,,F,]F,CF z FCF, | C,G,C z GE [G,,G,]2 | z8 | z8 | z8 |] %97
V:3
!mf! [cg]4 [Ad]4 | [ce]8 | [cg]4 [df]4- | [df]4 z4 | z8 ||!p!!<(! A8!<)! | F8 | C8 | G8 | A8 | F8 | %11
 C8 | G8 | A8 | G8 | z8 | z2!mp! G2 cded- | dccA c2 cc- | c3 F cded- | d c2 c g2 cd- | %20
 d2 G2 cded- | dccA c2 cc- | c3 F cded- | d c2 c g2 cd- | d4 z4 ||[M:3/4] z6 |[M:4/4] z8 | z8 | %28
 z8 |[M:3/4] z6 |[M:4/4] z8 | z8 | z8 | z8 | z4 d4 | z8 | z4 B4 | z8 | z4 g4 | z8 | z4 z2 c2 | z8 | %42
 z4 z4 | z8 | z8 | z8 | z8 | z8 | z8 | z8 | z8 | z8 | z2 G2 cded- | dccA c2 cc- | c3 F cded- | %55
 d c2 c g2 cd- | d6 cB | c2 z2 z2 z2 | z8 | z8 | z8 | z2 z2 z4 || z8 | z8 | z8 | z8 | z8 | z8 | %68
 z8 | z2 z2 z2!pp! c2 | g4 g3 g | g2 e2 d2 dc | e8 | z8 |!p! z2 G2 cded- | dccA c2 cc- | %76
 c3 F cded- | d c2 c g2 cd- | d2 G2 cded- | dccA c2 cc- | c3 F cded- | d c2 c g2 cd- | d4 z4 | %83
 cBGA dega | DEGA dega | cBGA dega | DEGA dega || z8 | z8 | z8 | z8 | z8 | z8 | z8 | z8 | z8 | %96
 z8 |] %97

